X:36
T:Blacks Hornpipe. JMP.036
T:Lady Flashdash,aka. JMP.036
T:Back of the Haggard,aka. JMP.036
T:Kershawâ€™s Hp.,aka. JMP.036
M:2/4
L:1/16
Q:1/4=90
C:â€40â€³
S:John Miller MS. Perth, 1799.(for the fife)
R:.Hornpipe
O:Scotland
A:Perth
N:â€™Blacks Hornpipe -.Derryâ€™ â€“ Londonderry, presumably. And there is
N:another title written over â€˜Blacksâ€™ in a different writing â€“ could be
N:Houldens Hornpipe..CGrâ€¦aka Dukeâ€™s Hp., aka Kershawâ€™s Hp.
H:1799
Z:vmp.C. Graebe
K:D Major
â€œ_Key in MS is Gmajorâ€A2 | dfdf ecAc | dBGB AFDF |\
GBAc Bged | dcBc A2dc |!
dAA2 ecc2 | gefd aAB^c |BdGB AGFE | D2D2 D2 :|!
|: A2 | dAdA FAFD |BGEG BGdB | gefd ecdB | ce2d cBAG |!
Fdâ€trâ€d2 Geâ€trâ€e2 | Afâ€trâ€f2 | Bgâ€trâ€g2 | afdf Bgec | d2d2d2 |]

